X: 33
T:The Old Favourite
R:double jig
M:6/8
L:1/8
K:G
"G"B3 BAB|dBA G2B|ded d2B|ded B2A|B3 BAB|
dBA G2B|ded "D"cBA|"G"G3 G2z::"G"g3 "D"f3|"Em"efe edB|"G"ded d2B|ded B2d|
"G"g3 "D7"f3|"Em"efe edB|[1 "G"dge "D"dBA|"G"G3 GBd:|[2 "G"dge dge|dge "D"dBA|]

